!!!COM: des Prez, Josquin
!!!CDT: ~1450-1521/08/27
!!!OPR: Missa D'ung aultre amer
!!!ONM: 3
!!!OTL: Credo
!!!AGN: Mass; Credo
!!!SCT: NJE 7.3
!!!SCA: New Josquin Edition 7.3
!!!voices: 4
!!!ONB1: Jena 31, anon.; evidently a first draft for what would become the Credo of the cyclic mass
**kern	**kern	**kern	**kern
*part4	*part3	*part2	*part1
*staff4	*staff3	*staff2	*staff1
*Ivox	*Ivox	*Ivox	*Ivox
*I"Bassus	*I"Tenor	*I"Altus	*I"Superius
*I'B	*I'T	*I'A	*I'S
*clefF4	*clefGv2	*clefGv2	*clefG2
*k[b-]	*k[b-]	*k[b-]	*k[b-]
*M2/1	*M2/1	*M2/1	*M2/1
*met(C|)	*met(C|)	*met(C|)	*met(C|)
=	=	=	=
!	!	!	!LO:TX:Z=8:t=S quotes Okeghem song discantus
!	!	!	!LO:TX:Z=25:t=Jena 31 (anon.); evidently a first draft for what would become the Credo of the cyclic mass
1GG	1G	1d	0g
2GG	2B-	2d	.
2GG	2B-	2e	.
=3	=3	=3	=3
2D	2A	2f	1a
2D	2A	2f	.
2GG	1B-	1d	1g
[2G	.	.	.
=4	=4	=4	=4
4G]	2G	2B-	1.dd
4A	.	.	.
1B-	2G	1d	.
.	2B-	.	.
4A	2B-	2e	4cc
4G	.	.	4b-
=5	=5	=5	=5
2F	0c	2.f	1a
2F	.	.	.
.	.	4f	.
2F	.	2f	1a
2F	.	2f	.
=6	=6	=6	=6
2F	1c	2f	1a
2F	.	2f	.
1BB-	2B-	2.f	1dd
.	4A	.	.
.	4G	4g	.
=7	=7	=7	=7
0r	2F	2a	1dd
.	2G	1g	.
.	1A	.	1cc
.	.	2f	.
=8	=8	=8	=8
1r	1G	2g	2b-
.	.	2.d	1b-
2GG	2r	.	.
.	.	4c	.
2GG	[2d	2B-	4a
.	.	.	4g
=9	=9	=9	=9
2D	4d]	1A	0f
.	4d	.	.
2D	2d	.	.
1D	2d	2B-	.
.	2d	2A	.
=10	=10	=10	=10
2E-Xi	1B-	2G	1r
2G	.	1d	.
1D	1A	.	1f
.	.	2d	.
=11	=11	=11	=11
2r	1G	2.B-	1g
2E	.	.	.
.	.	4c	.
2D	1r	2.d	1b-
2G	.	.	.
.	.	4e	.
=12	=12	=12	=12
2F	0r	2f	0a
2E	.	1g	.
1D	.	.	.
.	.	2f#Xi	.
=13	=13	=13	=13
2.E-X	2B-	1g	1.g
.	2B-	.	.
4E-Xi	.	.	.
2E-Xi	2B-	1r	.
2D	2B-	.	2f
=14	=14	=14	=14
2C	2c	2G	1e
2C	2c	2A	.
1BB-	1F	2B-	[1d
.	.	2B-	.
=15	=15	=15	=15
1BB-	2F	2B-	1d]
.	2F	2B-	.
1BB-	2F	1B-	1d
.	2F	.	.
=16	=16	=16	=16
1D	2F	2A	1d
.	4F	2B-	.
.	4F	.	.
2C	2G	2G	[1e
2C	2C	[2c	.
=17	=17	=17	=17
2C	2E	2c]	2e]
2D	2F	2B-	2d
1C	2G	[1c	1e
.	2G	.	.
=18	=18	=18	=18
1FF	1F	1c]	2.f
.	.	.	4e
2F	1r	1r	[1d
2G	.	.	.
=19	=19	=19	=19
2D	0r	0r	2d]
2F	.	.	4c
.	.	.	4B-
1E-X	.	.	1c
=20	=20	=20	=20
2.D	2A	2f	[0d
.	2A	2f	.
4D	.	.	.
2D	2A	2f	.
2D	2A	2f	.
=21	=21	=21	=21
2GG	2B-	2d	0d]
2GG	2B-	1g	.
2.D	1A	.	.
.	.	2f	.
4C	.	.	.
=22	=22	=22	=22
2BB-	2G	2g	0r
2C	1G	2e	.
2AA	.	4f	.
.	.	4e	.
2AA	2F#Xi	4d	.
.	.	4c	.
=23	=23	=23	=23
1GG	0G	2.B-	0b-
.	.	4c	.
2r	.	2d	.
2GG	.	2d	.
=24	=24	=24	=24
2C	2r	2e	1cc
2C	2.G	2e	.
2E-X	.	2g	1cc
.	4G	.	.
2E-Xi	2G	2g	.
=25	=25	=25	=25
1D	2A	2f	0dd
.	1A	2f	.
2D	.	2f	.
2D	2A	[2f	.
=26	=26	=26	=26
2BB-	2B-	4f]	1dd
.	.	4f	.
2BB-	2B-	2f	.
2BB-	2B-	2f	1dd
2BB-	2B-	2f	.
=27	=27	=27	=27
2F	2.A	1f	2cc
2F	.	.	1cc
.	4B-	.	.
2.F	2c	1r	.
.	[2d	.	4b-
4G	.	.	4a
=28	=28	=28	=28
1E	2d]	1r	1g
.	2c#Xi	.	.
2.D	1d	2.F	[1f
4D	.	4G	.
=29	=29	=29	=29
2D	0r	2A	2f]
2BB-	.	1B-	2d
2F	.	.	1c
2F	.	2A	.
=30	=30	=30	=30
1BB-	0r	2B-	1.d
.	.	4A	.
.	.	4G	.
2r	.	2F	.
[2B-	.	2G	2B-
=31	=31	=31	=31
2B-]	0r	2D	1B-
4A	.	1G	.
4G	.	.	.
1A	.	.	1c
.	.	2F#Xi	.
=32	=32	=32	=32
2G	2d	1G	1B-
2G	2d	.	.
2G	2d	2r	[1b-
2E-Xi	2e-X	[2g	.
=33	=33	=33	=33
1G	2d	2g]	1b-]
.	2B-	4f	.
.	.	4e	.
1F	1c	2f	1a
.	.	2f	.
=34	=34	=34	=34
1BB-	1B-	2.d	0b-
.	.	4e	.
1r	2B-	2f	.
.	2B-	2g	.
=35	=35	=35	=35
0r	2c	2a	0r
.	2G	1g	.
.	1A	.	.
.	.	2f#Xi	.
=36	=36	=36	=36
1r	1G	2.g	0b-
.	.	4f	.
1G	2r	2d	.
.	2G	2e	.
=37	=37	=37	=37
2F	2c	2f	1a
2F	2c	2f	.
2F	2c	1f	1a
2F	2c	.	.
=38	=38	=38	=38
2G	2B-	2r	2g
2A	2c	2f	1cc
1G	2d	2g	.
.	2d	2g	2b-
=39	=39	=39	=39
2C	1c	1e	2a
2C	.	.	2g
1F	2c	1f	1a
.	2c	.	.
=40	=40	=40	=40
1BB-	2d	1d	1b-
.	1B-	.	.
1E-X	.	1r	1g
.	4A	.	.
.	4G	.	.
=41	=41	=41	=41
2D	2F	2.f	1dd
2BB-	2B-	.	.
.	.	4f	.
1F	2.A	2f	2cc
.	.	2f	[2cc
.	4B-	.	.
=42	=42	=42	=42
2r	2c	2e	2cc]
2BB-	2d	2f	2b-
2C	1c	1e	2a
2C	.	.	2g
=43	=43	=43	=43
2GG	1B-	1d	1b-
2G	.	.	.
2E	2r	2e	2g
2F	2A	2c	[2a
=44	=44	=44	=44
2.D	2.d	2.f	4a]
.	.	.	4g
.	.	.	4f
4D	4c	4g	4e
2D	2A	4a	2f
.	.	4f	.
2C	2c	[2g	2e
=45	=45	=45	=45
1G	1B-	4g]	2d
.	.	4f	.
.	.	2e	1g
1D	1A	1d	.
.	.	.	2f#Xi
=46	=46	=46	=46
0GGl	0Gl	0dl	0gl
=||	=||	=||	=||
*-	*-	*-	*-
!!!RDF**kern: l=long note in original notation
!!!system-decoration: s1,s2,s3,s4
!!!RDF**kern: i = editorial accidental
!!!ENC: Jesse Rodin
!!!END: 2021/03/25
!!!EED: Jesse Rodin
!!!EEV: 2021/04/28
!!attribution-level@Jos: 2 (provisionally attributable [parentheses checkmark])
!!!ONB: Translated from MusicXML and edited on 2021/04/28 by Craig Sapp
!!muse2ps: T^@{OPR}^u^@{ONM}{. }@{OTL}^C^@{COM}\n@{SCT}^i2I150v85,85,85,150z18c160t200l2700
